layouts/icon-pack/armor_heavy_feet.svg

<?xml version="1.0" encoding="UTF-8"?>
<svg width="1200pt" height="1200pt" version="1.1" viewBox="0 0 1200 1200" xmlns="http://www.w3.org/2000/svg">
 <g fill="#fff">
  <path d="m664.97 374.04h-74.039c-5.4805-0.003906-10.727 2.2266-14.523 6.1758-3.8008 3.9492-5.8281 9.2773-5.6094 14.754 1.5703 39.844 3.0703 87.891 3.7734 137.06 0.050782 4.6445 1.9414 9.0781 5.2617 12.324 3.3164 3.25 7.7891 5.0469 12.434 4.9961 19.125-0.1875 44.203-0.30469 72.164 0 5.4688 0.042969 10.73-2.0977 14.617-5.9453 3.8828-3.8516 6.0703-9.0938 6.0781-14.562v-134.65c0-5.3477-2.125-10.473-5.9023-14.254-3.7812-3.7773-8.9062-5.9023-14.254-5.9023z"/>
  <path d="m195.09 1143.9h721.59c10.996 0.011719 21.707-3.4688 30.594-9.9453 8.8828-6.4766 15.48-15.609 18.836-26.078 14.977-47.062 29.836-139.52-14.344-273.4-10.457-31.586-15.77-64.648-15.727-97.922 0.16406-78.609 1.8984-225.77 11.719-340.73 0.47266-5.6133-1.4336-11.172-5.25-15.316-3.8203-4.1406-9.1992-6.4922-14.836-6.4805h-174.75c-5.3398 0.007813-10.461 2.1328-14.238 5.9102-3.7734 3.7812-5.8945 8.9062-5.8945 14.246v345.96c0 85.359-46.148 162.82-120.4 202.17-37.031 19.617-80.367 32.531-128.77 38.367-3.6094 0.4375-7.2383 0.65625-10.875 0.65625-20.352 0.007813-40.078-7.043-55.812-19.949-15.734-12.906-26.508-30.871-30.484-50.832-3.457-16.961-8.7031-33.508-15.656-49.359-2.5234-5.5859-6.9883-10.07-12.566-12.617-5.5742-2.5469-11.887-2.9844-17.762-1.2344-7.8125 2.2656-15.727 4.5469-23.742 6.8438 0 0-174.28 47.039-165.49 248.09 0.55469 11.246 5.4219 21.848 13.586 29.598 8.168 7.75 19.008 12.059 30.266 12.027z"/>
  <path d="m1045.5 102.02c5.0938-9.7266 4.7305-21.406-0.95312-30.801-5.6836-9.3945-15.863-15.133-26.844-15.137h-522.66c-10.984-0.003907-21.172 5.7305-26.859 15.125-5.6914 9.3945-6.0547 21.082-0.96094 30.812l31.336 59.812c11.477 21.902 13.18 47.629 4.6875 70.852l-18.75 51.562c-3.5312 9.625-2.1367 20.367 3.7344 28.773s15.477 13.414 25.727 13.414h485.16c10.25-0.003906 19.855-5.0117 25.73-13.414 5.8711-8.4023 7.2734-19.145 3.7539-28.773l-18.75-51.562c-8.4805-23.223-6.7773-48.945 4.6875-70.852z"/>
  <path d="m557.32 776.04c-3.5742-2.9766-8.0781-4.6172-12.73-4.6367-4.6523-0.023438-9.168 1.5742-12.77 4.5195-9.6328 8.0859-20.547 14.504-32.297 18.984-21.844 8.3203-45.984 16.875-72.656 25.781-4.8633 1.6094-8.8281 5.1914-10.922 9.8672-2.0938 4.6758-2.1289 10.016-0.09375 14.719 7.6445 17.945 13.453 36.621 17.344 55.734 1.9883 10.066 7.7109 19.004 16.02 25.027 8.3086 6.0195 18.586 8.6758 28.77 7.4336 42.562-5.1328 80.297-16.289 112.15-33.164 9.6289-5.1211 18.77-11.113 27.305-17.906 5.582-4.5586 9.2188-11.07 10.176-18.211 0.96094-7.1445-0.83594-14.383-5.0195-20.25-18.633-26.719-43.688-50.273-65.273-67.898z"/>
  <path d="m674.46 802.17c7.0664-19.91 10.676-40.887 10.664-62.016v-122.7c-0.007812-5.4102-2.1445-10.598-5.957-14.438-3.8086-3.8398-8.9766-6.0195-14.387-6.0703-28.125-0.23438-53.484 0-72.656 0-4.6016 0.054687-8.9961 1.9141-12.246 5.1719-3.2461 3.2617-5.0859 7.6641-5.1211 12.266-0.28125 27.938-0.96094 54.961-2.2031 79.688-0.23828 4.6211-0.76172 9.2227-1.5703 13.781-0.80859 4.8008-0.30469 9.7305 1.457 14.27 1.7617 4.5352 4.7148 8.5156 8.5508 11.512 22.547 17.906 49.852 42.516 72.281 71.531 2.6641 3.5781 7.0664 5.4141 11.484 4.7891 4.4141-0.625 8.1367-3.6133 9.7031-7.7891z"/>
 </g>
</svg>

<?xml version="1.0" encoding="UTF-8" standalone="no"?>
<!DOCTYPE svg PUBLIC "-//W3C//DTD SVG 1.1//EN" "http://www.w3.org/Graphics/SVG/1.1/DTD/svg11.dtd">
<svg width="100%" height="100%" viewBox="0 0 423 512" version="1.1" xmlns="http://www.w3.org/2000/svg" xmlns:xlink="http://www.w3.org/1999/xlink" xml:space="preserve" xmlns:serif="http://www.serif.com/" style="fill-rule:evenodd;clip-rule:evenodd;stroke-linejoin:round;stroke-miterlimit:2;">
    <g transform="matrix(1,0,0,1,-150.911,-56.082)">
        <g transform="matrix(0.470665,0,0,0.470665,79.8824,29.6862)">
            <path d="M664.97,374.04L590.931,374.04C585.451,374.036 580.204,376.267 576.408,380.216C572.607,384.165 570.58,389.493 570.799,394.97C572.369,434.814 573.869,482.861 574.572,532.03C574.623,536.674 576.513,541.108 579.834,544.354C583.15,547.604 587.623,549.401 592.268,549.35C611.393,549.162 636.471,549.045 664.432,549.35C669.901,549.393 675.162,547.252 679.049,543.405C682.931,539.553 685.119,534.311 685.127,528.843L685.127,394.193C685.127,388.845 683.002,383.72 679.224,379.939C675.443,376.161 670.318,374.036 664.97,374.036L664.97,374.04Z" style="fill:white;fill-rule:nonzero;"/>
            <path d="M195.09,1143.9L916.68,1143.9C927.676,1143.91 938.387,1140.43 947.274,1133.95C956.157,1127.48 962.754,1118.35 966.11,1107.88C981.087,1060.82 995.946,968.357 951.766,834.477C941.309,802.891 935.996,769.829 936.039,736.555C936.203,657.946 937.937,510.785 947.758,395.825C948.231,390.211 946.324,384.653 942.508,380.509C938.688,376.368 933.309,374.017 927.672,374.028L752.922,374.028C747.582,374.036 742.461,376.161 738.684,379.938C734.911,383.72 732.79,388.845 732.79,394.184L732.79,740.144C732.79,825.503 686.642,902.964 612.39,942.314C575.359,961.931 532.023,974.845 483.62,980.681C480.01,981.119 476.381,981.338 472.745,981.338C452.393,981.345 432.667,974.295 416.933,961.389C401.199,948.483 390.425,930.518 386.449,910.557C382.992,893.596 377.745,877.049 370.793,861.198C368.269,855.612 363.804,851.128 358.227,848.581C352.652,846.034 346.34,845.596 340.465,847.346C332.652,849.612 324.738,851.893 316.723,854.19C316.723,854.19 142.443,901.229 151.233,1102.28C151.787,1113.53 156.654,1124.13 164.819,1131.88C172.987,1139.63 183.827,1143.94 195.085,1143.9L195.09,1143.9Z" style="fill:white;fill-rule:nonzero;"/>
            <path d="M1045.5,102.02C1050.59,92.293 1050.23,80.614 1044.55,71.219C1038.86,61.824 1028.68,56.086 1017.7,56.082L495.043,56.082C484.059,56.078 473.871,61.812 468.184,71.207C462.492,80.601 462.129,92.289 467.223,102.019L498.559,161.831C510.036,183.733 511.739,209.46 503.246,232.683L484.496,284.245C480.965,293.87 482.36,304.612 488.231,313.018C494.102,321.424 503.708,326.432 513.958,326.432L999.118,326.432C1009.37,326.428 1018.97,321.42 1024.85,313.018C1030.72,304.616 1032.12,293.873 1028.6,284.245L1009.85,232.683C1001.37,209.46 1003.07,183.738 1014.54,161.831L1045.5,102.02Z" style="fill:white;fill-rule:nonzero;"/>
            <path d="M557.32,776.04C553.746,773.063 549.242,771.423 544.59,771.403C539.938,771.38 535.422,772.978 531.82,775.923C522.187,784.009 511.273,790.427 499.523,794.907C477.679,803.227 453.539,811.782 426.867,820.688C422.004,822.297 418.039,825.879 415.945,830.555C413.851,835.231 413.816,840.571 415.851,845.274C423.496,863.219 429.304,881.895 433.195,901.008C435.184,911.074 440.906,920.012 449.215,926.035C457.524,932.055 467.801,934.711 477.985,933.469C520.547,928.336 558.282,917.18 590.135,900.305C599.764,895.184 608.905,889.192 617.44,882.399C623.022,877.84 626.659,871.329 627.616,864.188C628.577,857.043 626.78,849.805 622.597,843.938C603.964,817.219 578.909,793.665 557.324,776.04L557.32,776.04Z" style="fill:white;fill-rule:nonzero;"/>
            <path d="M674.46,802.17C681.526,782.26 685.136,761.283 685.124,740.154L685.124,617.454C685.116,612.044 682.98,606.856 679.167,603.016C675.358,599.176 670.19,596.997 664.78,596.946C636.655,596.711 611.296,596.946 592.124,596.946C587.522,597 583.128,598.86 579.878,602.118C576.632,605.379 574.792,609.782 574.757,614.384C574.476,642.322 573.796,669.345 572.554,694.072C572.316,698.693 571.792,703.294 570.984,707.853C570.175,712.653 570.679,717.583 572.441,722.123C574.202,726.658 577.155,730.638 580.991,733.635C603.538,751.541 630.843,776.151 653.272,805.166C655.936,808.744 660.339,810.58 664.756,809.955C669.17,809.33 672.893,806.341 674.459,802.166L674.46,802.17Z" style="fill:white;fill-rule:nonzero;"/>
        </g>
    </g>
</svg>
